assets/icons/eye.svg

<svg xmlns="http://www.w3.org/2000/svg" viewBox="0 0 32 32" role="presentation" aria-hidden="true"><path d="M16.0006 18.6667C16.7048 18.6667 17.3801 18.3857 17.878 17.8856C18.3758 17.3855 18.6556 16.7073 18.6556 16C18.6556 15.2928 18.3758 14.6145 17.878 14.1144C17.3801 13.6143 16.7048 13.3333 16.0006 13.3333C15.2965 13.3333 14.6212 13.6143 14.1233 14.1144C13.6254 14.6145 13.3457 15.2928 13.3457 16C13.3457 16.7073 13.6254 17.3855 14.1233 17.8856C14.6212 18.3857 15.2965 18.6667 16.0006 18.6667Z" fill="currentColor"/><path fill-rule="evenodd" clip-rule="evenodd" d="M3.33398 16C5.02517 10.5907 10.0563 6.66667 16.0007 6.66667C21.945 6.66667 26.9761 10.5907 28.6673 16C26.9761 21.4093 21.945 25.3333 16.0007 25.3333C10.0563 25.3333 5.02517 21.4093 3.33398 16ZM21.3105 16C21.3105 17.4145 20.7511 18.771 19.7553 19.7712C18.7595 20.7714 17.4089 21.3333 16.0007 21.3333C14.5924 21.3333 13.2418 20.7714 12.246 19.7712C11.2502 18.771 10.6908 17.4145 10.6908 16C10.6908 14.5855 11.2502 13.229 12.246 12.2288C13.2418 11.2286 14.5924 10.6667 16.0007 10.6667C17.4089 10.6667 18.7595 11.2286 19.7553 12.2288C20.7511 13.229 21.3105 14.5855 21.3105 16Z" fill="currentColor"/></svg>

<svg xmlns="http://www.w3.org/2000/svg" aria-hidden="true" viewBox="0 0 32 32"><path fill="currentColor" d="M16 18.667a2.65 2.65 0 0 0 1.878-.781 2.673 2.673 0 0 0 0-3.772 2.65 2.65 0 0 0-3.755 0 2.673 2.673 0 0 0 0 3.772 2.65 2.65 0 0 0 1.878.78"/><path fill="currentColor" fill-rule="evenodd" d="M3.334 16c1.691-5.41 6.722-9.333 12.667-9.333S26.976 10.59 28.667 16c-1.69 5.41-6.722 9.333-12.666 9.333-5.945 0-10.976-3.924-12.667-9.333m17.977 0c0 1.415-.56 2.771-1.556 3.771a5.3 5.3 0 0 1-3.754 1.562 5.3 5.3 0 0 1-3.755-1.562A5.35 5.35 0 0 1 10.691 16c0-1.415.56-2.771 1.555-3.771a5.3 5.3 0 0 1 3.755-1.562c1.408 0 2.758.562 3.754 1.562A5.35 5.35 0 0 1 21.311 16" clip-rule="evenodd"/></svg>
